X:14
T:Gubbstt
T:efter Pelle Fors
R:Gubbstt
O:Vikbolandet, stergtland
S:efter Pelle Fors
B:Ltar efter Pelle Fors
Z:Bjrn Ek 2009-01-01
N:Nr 14 i Ltar efter Pelle Fors
M:3/4
L:1/8
K:G
%
|:b>a g2 B2|d2 c2 A2|Af !trill!fe fg|ag fe d2|
b>a g2 B2  |d2 c2 A2|Af !trill!fe fa|g2 g4  :|
%
|:D>G (G/A/G/F/) GB|d2 (c/d/c/B/) c2|Af (f/g/f/e/) fg|ag fe d2|
D>G (G/A/G/F/) GB|d2 (c/d/c/B/) c2|Af (f/g/f/e/) fa|g2 g4:|
%
